!!!OTL: Nachtglueck.
!!!OTL-incipit: WENN DIE NACHT MIT STILLER RUH
!!!COM: C. G. Hausius
!!!ARE: Europa, Mitteleuropa, Deutschland
!!!SCT: F0010
!!!TXL: @@DE
!!!YEM: Copyright 1995, estate of Helmut Schaffrath.
**kern	**text
*ICvox	*
*clefG2	*
*M4/4	*
*met(c)	*
*k[b-]	*
*F:	*
=1	=1
!LO:TX:a:t=Sanft.	!
!LO:TX:a:t=P:only higher voice encoded:problem	!
!LO:TX:a:t=C. G. Huasius	!
{4f	Wenn
4a	die
4.cc	Nacht
8a	mit
=2	=2
(8gL	ſtil-
8a	.
8b-J)	.
8cc	-ler
(4b-/	Ruh'
8a)	.
8r}	.
=3	=3
{4.cc	längſt
8a	die
(8dd/L	Mü-
8ccJ)	.
(8b-L	-den
8aJ)	.
=4	=4
2a	loh-
4g	-net,
4r}	.
=5	=5
{4f	Geh'
4a	ich
4.cc	auf
8a	das
=6	=6
(8gL	Hütt-
8a	.
8b-J)	.
8cc	-chen
(4b-/	ʒu,
8a)	.
8r}	.
=7	=7
{4.cc	wo
8a	mein
(8dd/L	Mädchen
8ccJ)	.
(8b-L	.
8aJ)	.
=8	=8
2a	woh-
4g	-net,
4r}	.
=9	=9
{4.g	wünſch'
8b-/	ihr
4.a	noch
8cc/	um
=10	=10
4.g	Mit-
8b-/	-ter-
(4b-/	-nacht
8a)	.
8r}	.
=11	=11
{4.dd	ei-
8dd	-ne
(4cc	ſü-
!LO:TUP:a	!
12ddL	.
12ccJ	.
12b-)	-ße,
=12	=12
4a	gu-
4g	-te
4f	Nacht.
4r}	.
=13	=13
{4.g	wünſch'
8b-/	ihr
4.a	noch
8cc/	um
=14	=14
4.g	Mit-
8b-/	-ter-
(4b-/	-nacht
8a)	.
8r}	.
=15	=15
{4.dd	ei-
8dd	-ne
(4cc	ſü-
!LO:TUP:a	!
12ddL	.
12ccJ	.
12b-)	-ße,
=16	=16
4a	gu-
4g	-te
4f	Nacht.
4r}	.
==;	==;
!!!AGN: Tageszeiten - Lied, Nacht, Schlaf; Liebe
!!!GTL:Volkslieder
!!!ONB: ESAC (Essen Associative Code) Database: FINK
!!!AMT: simple quadruple
!!!AIN: vox
!!!EED: Helmut Schaffrath
!!!EEV: 1.0
!!!GTL: Volkslieder
!!!source: Musikalischer Hausschatz der Deutschen. Eine Sammlung von über 1000 Liedern und Gesängen mit Singstimmen und Klavierbegleitung. Leipzig, Litterarisches Verlags-Haus.
!!!page: 6
!!Text: H. W. v. Stamford
!!!URL-scan: https://www.digitale-sammlungen.de/en/view/bsb11144622?page=14,15
!!!ENC: Anna Maria Matuszewska
!!!EEV: 2024/07/25
*-	*-
